; generated by Slic3r 1.2.9 on 2018-07-03 at 08:05:47

; external perimeters extrusion width = 0.50mm
; perimeters extrusion width = 0.85mm
; infill extrusion width = 1.02mm
; solid infill extrusion width = 0.85mm
; top infill extrusion width = 0.85mm
; support material extrusion width = 0.50mm

M107
M190 S95 ; set bed temperature
M104 S240 ; set temperature
G28 ; home all axes
G1 Z5 F5000 ; lift nozzle

M109 S240 ; wait for temperature to be reached
G21 ; set units to millimeters
G90 ; use absolute coordinates
M82 ; use absolute distances for extrusion
G92 E0
G1 Z0.200 F7800.000
G1 E-5.00000 F2400.00000
G92 E0
G1 Z1.200 F7800.000
G1 X-0.157 Y23.810 F7800.000
G1 Z0.200 F7800.000
G1 E5.00000 F2400.00000
G1 X-1.887 Y23.798 E5.03699 F2880.000
G1 X-5.445 Y23.662 E5.11311
G1 X-9.007 Y23.413 E5.18942
G1 X-12.575 Y23.049 E5.26609
G1 X-16.247 Y22.555 E5.34529
G1 X-19.756 Y21.967 E5.42136
G1 X-23.386 Y21.238 E5.50051
G1 X-26.784 Y20.443 E5.57510
G1 X-30.143 Y19.545 E5.64941
G1 X-33.610 Y18.502 E5.72682
G1 X-37.032 Y17.352 E5.80398
G1 X-39.019 Y16.246 E5.85259
G1 X-40.505 Y14.525 E5.90120
G1 X-41.309 Y12.398 E5.94981
G1 X-41.422 Y11.164 E5.97631
G1 X-41.428 Y9.047 E6.02156
G1 X-41.307 Y6.704 E6.07171
G1 X-41.053 Y4.372 E6.12185
G1 X-40.709 Y2.282 E6.16713
G1 X-40.207 Y-0.006 E6.21719
G1 X-40.089 Y-0.465 E6.22733
G1 X-39.508 Y-2.487 E6.27229
G1 X-38.737 Y-4.702 E6.32244
G1 X-37.842 Y-6.870 E6.37258
G1 X-36.826 Y-8.985 E6.42273
G1 X-35.691 Y-11.038 E6.47287
G1 X-34.583 Y-12.810 E6.51755
G1 X-33.238 Y-14.727 E6.56760
G1 X-32.952 Y-15.105 E6.57775
G1 X-31.618 Y-16.768 E6.62331
G1 X-30.052 Y-18.514 E6.67346
G1 X-28.389 Y-20.169 E6.72360
G1 X-26.635 Y-21.727 E6.77375
G1 X-24.796 Y-23.183 E6.82389
G1 X-23.113 Y-24.374 E6.86796
G1 X-21.134 Y-25.625 E6.91801
G1 X-20.723 Y-25.863 E6.92816
G1 X-18.827 Y-26.896 E6.97433
G1 X-16.708 Y-27.902 E7.02447
G1 X-14.535 Y-28.787 E7.07462
G1 X-12.316 Y-29.547 E7.12476
G1 X-10.057 Y-30.180 E7.17491
G1 X-8.073 Y-30.624 E7.21837
G1 X-5.764 Y-31.015 E7.26842
G1 X-3.437 Y-31.275 E7.31848
G1 X-1.099 Y-31.403 E7.36854
G1 X-0.624 Y-31.411 E7.37868
G1 X1.572 Y-31.388 E7.42563 F2880.000
G1 X3.913 Y-31.232 E7.47578
G1 X6.241 Y-30.945 E7.52592
G1 X8.215 Y-30.594 E7.56877
G1 X10.496 Y-30.065 E7.61883
G1 X10.954 Y-29.940 E7.62897
G1 X13.075 Y-29.299 E7.67636
G1 X15.280 Y-28.496 E7.72650
G1 X17.435 Y-27.569 E7.77665
G1 X19.534 Y-26.522 E7.82679
G1 X21.570 Y-25.357 E7.87694
G1 X23.232 Y-24.289 E7.91918
G1 X25.135 Y-22.920 E7.96928
G1 X26.871 Y-21.516 E8.01701
G1 X27.232 Y-21.208 E8.02716
G1 X28.953 Y-19.619 E8.07721
G1 X30.341 Y-18.197 E8.11971
G1 X31.889 Y-16.434 E8.16985
G1 X33.335 Y-14.587 E8.22000
G1 X34.599 Y-12.770 E8.26730
G1 X34.859 Y-12.374 E8.27745
G1 X36.069 Y-10.368 E8.32750
G1 X37.014 Y-8.597 E8.37043
G1 X38.009 Y-6.472 E8.42057
G1 X38.881 Y-4.294 E8.47072
G1 X39.581 Y-2.217 E8.51759
G1 X39.720 Y-1.763 E8.52774
G1 X40.322 Y0.500 E8.57779
G1 X40.741 Y2.485 E8.62116
G1 X41.102 Y4.803 E8.67130
G1 X41.331 Y7.138 E8.72145
G1 X41.428 Y9.481 E8.77159
G1 X41.394 Y11.780 E8.82074
G1 X40.953 Y14.011 E8.86935
G1 X39.772 Y15.955 E8.91796
G1 X37.996 Y17.374 E8.96657
G1 X36.928 Y17.837 E8.99144
G1 X33.459 Y18.952 E9.06933
G1 X30.135 Y19.907 E9.14326
G1 X26.743 Y20.768 E9.21807
G1 X23.132 Y21.565 E9.29712
G1 X19.525 Y22.237 E9.37554
G1 X15.918 Y22.788 E9.45355
G1 X12.394 Y23.214 E9.52944
G1 X8.991 Y23.517 E9.60246
G1 X5.257 Y23.732 E9.68242
G1 X1.698 Y23.822 E9.75852
G1 X-0.082 Y23.811 E9.79656
G1 X-0.080 Y23.554 F7800.000
G1 X-1.881 Y23.541 E9.83507 F2880.000
G1 X-5.433 Y23.405 E9.91104
G1 X-8.987 Y23.156 E9.98719
G1 X-12.547 Y22.794 E10.06370
G1 X-16.081 Y22.320 E10.13992
G1 X-19.706 Y21.715 E10.21847
G1 X-23.231 Y21.009 E10.29532
G1 X-26.721 Y20.193 E10.37194
G1 X-30.274 Y19.241 E10.45058
G1 X-33.615 Y18.231 E10.52517
G1 X-36.948 Y17.109 E10.60036
G1 X-38.891 Y16.018 E10.64799
G1 X-40.330 Y14.316 E10.69562
G1 X-41.164 Y11.255 E10.76345
G1 X-41.171 Y9.054 E10.81050
G1 X-41.051 Y6.726 E10.86034
G1 X-40.799 Y4.408 E10.91017
G1 X-40.456 Y2.324 E10.95532
G1 X-39.956 Y0.051 E11.00507
G1 X-39.842 Y-0.395 E11.01491
G1 X-39.263 Y-2.407 E11.05966
G1 X-38.498 Y-4.609 E11.10949
G1 X-37.608 Y-6.764 E11.15932
G1 X-36.598 Y-8.865 E11.20916
G1 X-35.471 Y-10.905 E11.25899
G1 X-34.365 Y-12.673 E11.30356
G1 X-33.029 Y-14.578 E11.35331
G1 X-32.751 Y-14.945 E11.36315
G1 X-31.424 Y-16.600 E11.40849
G1 X-29.867 Y-18.335 E11.45832
G1 X-28.215 Y-19.980 E11.50815
G1 X-26.473 Y-21.528 E11.55798
G1 X-24.645 Y-22.975 E11.60781
G1 X-22.965 Y-24.164 E11.65180
G1 X-20.997 Y-25.407 E11.70155
G1 X-20.600 Y-25.638 E11.71138
G1 X-18.713 Y-26.666 E11.75731
G1 X-16.607 Y-27.666 E11.80714
G1 X-14.448 Y-28.545 E11.85697
G1 X-12.243 Y-29.300 E11.90680
G1 X-9.999 Y-29.930 E11.95663
G1 X-8.017 Y-30.373 E12.00004
G1 X-5.722 Y-30.761 E12.04979
G1 X-3.409 Y-31.019 E12.09953
G1 X-1.086 Y-31.146 E12.14928
G1 X-0.626 Y-31.154 E12.15911
G1 X1.557 Y-31.131 E12.20579 F2880.000
G1 X3.884 Y-30.977 E12.25562
G1 X6.197 Y-30.691 E12.30545
G1 X8.170 Y-30.341 E12.34827
G1 X10.437 Y-29.815 E12.39802
G1 X10.880 Y-29.694 E12.40785
G1 X12.989 Y-29.057 E12.45494
G1 X15.179 Y-28.259 E12.50477
G1 X17.321 Y-27.338 E12.55461
G1 X19.407 Y-26.298 E12.60443
G1 X21.431 Y-25.141 E12.65427
G1 X23.093 Y-24.072 E12.69651
G1 X24.984 Y-22.712 E12.74629
G1 X26.709 Y-21.317 E12.79372
G1 X27.059 Y-21.018 E12.80355
G1 X28.769 Y-19.440 E12.85330
G1 X30.157 Y-18.017 E12.89578
G1 X31.695 Y-16.266 E12.94561
G1 X33.131 Y-14.430 E12.99544
G1 X34.387 Y-12.624 E13.04246
G1 X34.640 Y-12.240 E13.05229
G1 X35.842 Y-10.247 E13.10204
G1 X36.787 Y-8.477 E13.14493
G1 X37.775 Y-6.365 E13.19477
G1 X38.641 Y-4.201 E13.24460
G1 X39.337 Y-2.135 E13.29120
G1 X39.472 Y-1.696 E13.30103
G1 X40.071 Y0.553 E13.35078
G1 X40.489 Y2.536 E13.39409
G1 X40.847 Y4.840 E13.44393
G1 X41.075 Y7.160 E13.49376
G1 X41.171 Y9.488 E13.54358
G1 X41.137 Y11.775 E13.59247
G1 X40.697 Y13.960 E13.64011
G1 X39.520 Y15.852 E13.68774
G1 X36.848 Y17.593 E13.75592
G1 X33.388 Y18.705 E13.83359
G1 X30.067 Y19.659 E13.90745
G1 X26.680 Y20.519 E13.98215
G1 X23.081 Y21.313 E14.06095
G1 X19.485 Y21.983 E14.13914
G1 X15.887 Y22.533 E14.21693
G1 X12.370 Y22.958 E14.29267
G1 X8.968 Y23.261 E14.36567
G1 X5.247 Y23.476 E14.44534
G1 X1.696 Y23.565 E14.52128
G1 X-0.005 Y23.554 E14.55764
G1 E9.55764 F2400.00000
G92 E0
G1 Z1.200 F7800.000
G1 X0.179 Y9.702 F7800.000
G1 Z0.200 F7800.000
G1 E5.00000 F2400.00000
G1 X-0.551 Y9.667 E5.01561 F720.000
G1 X-1.261 Y9.495 E5.03123
G1 X-1.925 Y9.191 E5.04684
G1 X-2.520 Y8.768 E5.06246
G1 X-3.024 Y8.239 E5.07807
G1 X-3.419 Y7.625 E5.09368
G1 X-3.690 Y6.946 E5.10930
G1 X-3.829 Y6.229 E5.12491
G1 X-3.829 Y5.499 E5.14053
G1 X-3.690 Y4.782 E5.15614
G1 X-3.419 Y4.103 E5.17176
G1 X-3.024 Y3.489 E5.18737
G1 X-2.520 Y2.960 E5.20298
G1 X-1.925 Y2.537 E5.21860
G1 X-1.261 Y2.233 E5.23421
G1 X-0.551 Y2.061 E5.24983
G1 X0.172 Y2.027 E5.26530 F720.000
G1 X0.901 Y2.130 E5.28104
G1 X1.592 Y2.369 E5.29667
G1 X2.225 Y2.734 E5.31228
G1 X2.777 Y3.213 E5.32789
G1 X3.228 Y3.787 E5.34351
G1 X3.563 Y4.436 E5.35912
G1 X3.769 Y5.137 E5.37474
G1 X3.838 Y5.864 E5.39035
G1 X3.769 Y6.591 E5.40597
G1 X3.563 Y7.292 E5.42158
G1 X3.228 Y7.941 E5.43719
G1 X2.777 Y8.515 E5.45281
G1 X2.225 Y8.994 E5.46842
G1 X1.592 Y9.359 E5.48404
G1 X0.902 Y9.598 E5.49965
G1 X0.253 Y9.691 E5.51366
G1 X0.217 Y9.437 F7800.000
G1 X-0.514 Y9.411 E5.52929 F720.000
G1 X-1.176 Y9.251 E5.54385
G1 X-1.796 Y8.968 E5.55842
G1 X-2.351 Y8.573 E5.57298
G1 X-2.821 Y8.079 E5.58754
G1 X-3.189 Y7.506 E5.60211
G1 X-3.443 Y6.874 E5.61667
G1 X-3.572 Y6.205 E5.63124
G1 X-3.572 Y5.523 E5.64580
G1 X-3.443 Y4.854 E5.66037
G1 X-3.189 Y4.222 E5.67493
G1 X-2.821 Y3.649 E5.68950
G1 X-2.351 Y3.155 E5.70406
G1 X-1.796 Y2.760 E5.71863
G1 X-1.176 Y2.477 E5.73319
G1 X-0.514 Y2.317 E5.74776
G1 X0.160 Y2.284 E5.76219 F720.000
G1 X0.841 Y2.381 E5.77687
G1 X1.485 Y2.604 E5.79145
G1 X2.075 Y2.945 E5.80601
G1 X2.590 Y3.391 E5.82058
G1 X3.011 Y3.926 E5.83514
G1 X3.323 Y4.532 E5.84971
G1 X3.515 Y5.186 E5.86427
G1 X3.580 Y5.864 E5.87884
G1 X3.515 Y6.542 E5.89340
G1 X3.323 Y7.196 E5.90796
G1 X3.011 Y7.802 E5.92253
G1 X2.590 Y8.337 E5.93709
G1 X2.075 Y8.783 E5.95166
G1 X1.485 Y9.124 E5.96622
G1 X0.841 Y9.347 E5.98079
G1 X0.291 Y9.426 E5.99267
G1 X0.254 Y9.172 F7800.000
G1 X0.154 Y9.186 E5.99483 F720.000
G1 X-0.477 Y9.156 E6.00834
G1 X-1.092 Y9.007 E6.02186
G1 X-1.667 Y8.744 E6.03537
G1 X-2.182 Y8.377 E6.04889
G1 X-2.618 Y7.920 E6.06240
G1 X-2.960 Y7.388 E6.07592
G1 X-3.195 Y6.801 E6.08943
G1 X-3.315 Y6.180 E6.10295
G1 X-3.315 Y5.548 E6.11646
G1 X-3.195 Y4.927 E6.12998
G1 X-2.960 Y4.340 E6.14349
G1 X-2.618 Y3.808 E6.15701
G1 X-2.182 Y3.351 E6.17052
G1 X-1.667 Y2.984 E6.18404
G1 X-1.092 Y2.721 E6.19755
G1 X-0.477 Y2.572 E6.21107
G1 X0.148 Y2.542 E6.22446 F720.000
G1 X0.780 Y2.632 E6.23810
G1 X1.378 Y2.839 E6.25161
G1 X1.925 Y3.155 E6.26513
G1 X2.403 Y3.569 E6.27864
G1 X2.794 Y4.066 E6.29216
G1 X3.084 Y4.628 E6.30567
G1 X3.262 Y5.235 E6.31919
G1 X3.322 Y5.864 E6.33270
G1 X3.262 Y6.493 E6.34622
G1 X3.084 Y7.100 E6.35973
G1 X2.794 Y7.662 E6.37325
G1 X2.403 Y8.159 E6.38676
G1 X1.925 Y8.573 E6.40028
G1 X1.378 Y8.889 E6.41380
G1 X0.780 Y9.096 E6.42731
G1 X0.328 Y9.161 E6.43707
G1 X0.217 Y9.265 F7800.000
G1 E1.43707 F2400.00000
G92 E0
G1 Z1.200 F7800.000
G1 X22.694 Y-15.631 F7800.000
G1 Z0.200 F7800.000
G1 E5.00000 F2400.00000
G1 X23.829 Y-14.592 E5.03289 F2880.000
G1 X25.181 Y-13.206 E5.07428
G1 X26.453 Y-11.746 E5.11567
G1 X27.640 Y-10.217 E5.15706
G1 X28.739 Y-8.622 E5.19845
G1 X29.692 Y-7.059 E5.23758
G1 X30.659 Y-5.260 E5.28125
G1 X31.473 Y-3.504 E5.32262
G1 X32.186 Y-1.704 E5.36401
G1 X32.797 Y0.134 E5.40540
G1 X33.303 Y2.003 E5.44679
G1 X33.703 Y3.898 E5.48819
G1 X33.979 Y5.707 E5.52732
G1 X34.178 Y7.740 E5.57098
G1 X34.252 Y9.674 E5.61236
G1 X34.225 Y11.167 E5.64427
G1 X31.478 Y12.052 E5.70596
G1 X28.256 Y12.979 E5.77763
G1 X24.977 Y13.810 E5.84995
G1 X21.686 Y14.534 E5.92198
G1 X18.384 Y15.150 E5.99378
G1 X15.064 Y15.661 E6.06559
G1 X11.715 Y16.067 E6.13769
G1 X8.351 Y16.367 E6.20989
G1 X5.005 Y16.558 E6.28154
G1 X1.641 Y16.644 E6.35346
G1 X-1.723 Y16.622 E6.42538
G1 X-5.098 Y16.492 E6.49758
G1 X-8.455 Y16.256 E6.56950
G1 X-11.802 Y15.913 E6.64143
G1 X-15.123 Y15.465 E6.71307
G1 X-18.454 Y14.908 E6.78525
G1 X-21.755 Y14.247 E6.85722
G1 X-25.046 Y13.478 E6.92946
G1 X-28.301 Y12.607 E7.00148
G1 X-31.505 Y11.639 E7.07304
G1 X-34.245 Y10.716 E7.13485
G1 X-34.252 Y9.248 E7.16624
G1 X-34.154 Y7.314 E7.20762
G1 X-33.932 Y5.284 E7.25128
G1 X-33.631 Y3.478 E7.29041
G1 X-33.208 Y1.589 E7.33181
G1 X-32.679 Y-0.274 E7.37320
G1 X-32.045 Y-2.104 E7.41459
G1 X-31.309 Y-3.895 E7.45598
G1 X-30.473 Y-5.641 E7.49737
G1 X-29.540 Y-7.338 E7.53876
G1 X-28.512 Y-8.979 E7.58015
G1 X-27.394 Y-10.559 E7.62154
G1 X-26.188 Y-12.073 E7.66292
G1 X-24.824 Y-13.594 E7.70658
G1 X-23.528 Y-14.887 E7.74571
G1 X-22.083 Y-16.176 E7.78710
G1 X-20.568 Y-17.382 E7.82849
G1 X-18.987 Y-18.500 E7.86989
G1 X-17.346 Y-19.527 E7.91128
G1 X-15.649 Y-20.460 E7.95267
G1 X-13.902 Y-21.295 E7.99406
G1 X-12.111 Y-22.030 E8.03545
G1 X-10.281 Y-22.663 E8.07684
G1 X-8.419 Y-23.191 E8.11821
G1 X-6.424 Y-23.632 E8.16188
G1 X-4.618 Y-23.929 E8.20101
G1 X-2.693 Y-24.135 E8.24240
G1 X-0.759 Y-24.233 E8.28379
G1 X1.177 Y-24.220 E8.32518
G1 X3.110 Y-24.099 E8.36657 F2880.000
G1 X5.032 Y-23.869 E8.40795
G1 X7.042 Y-23.506 E8.45161
G1 X8.823 Y-23.084 E8.49074
G1 X10.679 Y-22.533 E8.53214
G1 X12.501 Y-21.877 E8.57353
G1 X14.283 Y-21.119 E8.61492
G1 X16.020 Y-20.262 E8.65631
G1 X17.705 Y-19.309 E8.69770
G1 X19.333 Y-18.261 E8.73909
G1 X20.815 Y-17.186 E8.77823
G1 X22.401 Y-15.899 E8.82189
G1 X22.638 Y-15.681 E8.82877
G1 X22.812 Y-15.871 F7800.000
G1 X24.008 Y-14.777 E8.86342 F2880.000
G1 X25.370 Y-13.380 E8.90512
G1 X26.651 Y-11.910 E8.94682
G1 X27.848 Y-10.368 E8.98852
G1 X28.955 Y-8.762 E9.03023
G1 X29.915 Y-7.187 E9.06966
G1 X30.889 Y-5.375 E9.11364
G1 X31.709 Y-3.605 E9.15533
G1 X32.428 Y-1.792 E9.19703
G1 X33.043 Y0.059 E9.23873
G1 X33.553 Y1.943 E9.28043
G1 X33.956 Y3.852 E9.32214
G1 X34.235 Y5.675 E9.36157
G1 X34.434 Y7.723 E9.40555
G1 X34.509 Y9.672 E9.44724
G1 X34.479 Y11.355 E9.48323
G1 X31.553 Y12.298 E9.54894
G1 X28.323 Y13.227 E9.62078
G1 X25.036 Y14.061 E9.69328
G1 X21.737 Y14.785 E9.76548
G1 X18.427 Y15.403 E9.83745
G1 X15.099 Y15.915 E9.90944
G1 X11.742 Y16.323 E9.98172
G1 X8.370 Y16.624 E10.05409
G1 X5.015 Y16.815 E10.12591
G1 X1.644 Y16.901 E10.19801
G1 X-1.729 Y16.879 E10.27011
G1 X-5.112 Y16.749 E10.34248
G1 X-8.477 Y16.512 E10.41458
G1 X-11.832 Y16.168 E10.48668
G1 X-15.162 Y15.719 E10.55850
G1 X-18.500 Y15.161 E10.63085
G1 X-21.810 Y14.498 E10.70300
G1 X-25.108 Y13.727 E10.77542
G1 X-28.371 Y12.854 E10.84761
G1 X-31.583 Y11.884 E10.91935
G1 X-34.502 Y10.901 E10.98517
G1 X-34.509 Y9.242 E11.02064
G1 X-34.411 Y7.294 E11.06233
G1 X-34.187 Y5.249 E11.10631
G1 X-33.884 Y3.429 E11.14574
G1 X-33.457 Y1.525 E11.18744
G1 X-32.924 Y-0.351 E11.22915
G1 X-32.286 Y-2.195 E11.27085
G1 X-31.544 Y-3.999 E11.31255
G1 X-30.702 Y-5.759 E11.35425
G1 X-29.762 Y-7.468 E11.39595
G1 X-28.726 Y-9.121 E11.43765
G1 X-27.599 Y-10.714 E11.47935
G1 X-26.384 Y-12.239 E11.52105
G1 X-25.011 Y-13.771 E11.56502
G1 X-23.705 Y-15.074 E11.60445
G1 X-22.249 Y-16.373 E11.64616
G1 X-20.723 Y-17.587 E11.68786
G1 X-19.130 Y-18.714 E11.72956
G1 X-17.476 Y-19.749 E11.77126
G1 X-15.767 Y-20.688 E11.81297
G1 X-14.007 Y-21.530 E11.85467
G1 X-12.202 Y-22.271 E11.89637
G1 X-10.358 Y-22.908 E11.93807
G1 X-8.482 Y-23.441 E11.97976
G1 X-6.473 Y-23.884 E12.02374
G1 X-4.653 Y-24.184 E12.06317
G1 X-2.713 Y-24.392 E12.10488
G1 X-0.764 Y-24.490 E12.14658
G1 X1.186 Y-24.478 E12.18828
G1 X3.133 Y-24.355 E12.22998 F2880.000
G1 X5.070 Y-24.123 E12.27167
G1 X7.094 Y-23.758 E12.31565
G1 X8.889 Y-23.333 E12.35508
G1 X10.759 Y-22.777 E12.39679
G1 X12.595 Y-22.116 E12.43849
G1 X14.391 Y-21.353 E12.48019
G1 X16.140 Y-20.490 E12.52189
G1 X17.838 Y-19.529 E12.56359
G1 X19.479 Y-18.474 E12.60530
G1 X20.971 Y-17.390 E12.64473
G1 X22.569 Y-16.093 E12.68871
G1 X22.757 Y-15.922 E12.69415
G1 X22.930 Y-16.111 F7800.000
G1 X24.186 Y-14.962 E12.73055 F1440.000
G1 X25.559 Y-13.555 E12.77257
G1 X26.850 Y-12.073 E12.81458
G1 X28.055 Y-10.520 E12.85659
G1 X29.171 Y-8.902 E12.89860
G1 X30.138 Y-7.315 E12.93834
G1 X31.119 Y-5.490 E12.98263
G1 X31.945 Y-3.707 E13.02464
G1 X32.670 Y-1.880 E13.06665
G1 X33.289 Y-0.015 E13.10866
G1 X33.803 Y1.882 E13.15067
G1 X34.209 Y3.806 E13.19269
G1 X34.490 Y5.643 E13.23243
G1 X34.691 Y7.705 E13.27671
G1 X34.766 Y9.669 E13.31872
G1 X34.733 Y11.543 E13.35879
G1 X31.628 Y12.544 E13.42852
G1 X28.390 Y13.475 E13.50054
G1 X25.095 Y14.311 E13.57321
G1 X21.788 Y15.037 E13.64559
G1 X18.470 Y15.657 E13.71774
G1 X15.134 Y16.170 E13.78990
G1 X11.769 Y16.579 E13.86235
G1 X8.389 Y16.880 E13.93490
G1 X5.026 Y17.072 E14.00690
G1 X1.646 Y17.158 E14.07917
G1 X-1.735 Y17.136 E14.15144
G1 X-5.126 Y17.005 E14.22399
G1 X-8.499 Y16.768 E14.29626
G1 X-11.862 Y16.423 E14.36854
G1 X-15.200 Y15.973 E14.44053
G1 X-18.547 Y15.414 E14.51306
G1 X-21.864 Y14.749 E14.58538
G1 X-25.171 Y13.977 E14.65797
G1 X-28.441 Y13.101 E14.73035
G1 X-31.662 Y12.129 E14.80225
G1 X-34.758 Y11.086 E14.87209
G1 X-34.767 Y9.236 E14.91164
G1 X-34.667 Y7.273 E14.95365
G1 X-34.441 Y5.214 E14.99794
G1 X-34.136 Y3.380 E15.03767
G1 X-33.707 Y1.462 E15.07969
G1 X-33.170 Y-0.428 E15.12170
G1 X-32.526 Y-2.286 E15.16371
G1 X-31.779 Y-4.104 E15.20572
G1 X-30.931 Y-5.876 E15.24774
G1 X-29.984 Y-7.598 E15.28975
G1 X-28.940 Y-9.264 E15.33176
G1 X-27.805 Y-10.868 E15.37377
G1 X-26.581 Y-12.405 E15.41578
G1 X-25.197 Y-13.948 E15.46007
G1 X-23.881 Y-15.261 E15.49981
G1 X-22.415 Y-16.569 E15.54182
G1 X-20.877 Y-17.793 E15.58383
G1 X-19.273 Y-18.928 E15.62584
G1 X-17.606 Y-19.971 E15.66786
G1 X-15.884 Y-20.917 E15.70987
G1 X-14.111 Y-21.765 E15.75188
G1 X-12.293 Y-22.511 E15.79389
G1 X-10.435 Y-23.154 E15.83591
G1 X-8.545 Y-23.690 E15.87792
G1 X-6.522 Y-24.137 E15.92220
G1 X-4.687 Y-24.438 E15.96194
G1 X-2.733 Y-24.648 E16.00395
G1 X-0.770 Y-24.747 E16.04597
G1 X1.195 Y-24.735 E16.08798
G1 X3.157 Y-24.611 E16.12999 F1440.000
